static/assets/images/exchanges/paycash.svg

<svg width="300" height="256" viewBox="0 0 300 256" fill="none" xmlns="http://www.w3.org/2000/svg">
<path d="M209.87 147.789C213.914 151.887 211.05 158.896 205.331 158.896H126.178C139.439 185.764 146.531 215.631 146.531 246.24V249.239C146.531 255.25 153.701 258.261 157.895 254.01L297.352 112.646C303.009 106.911 299.002 97.1041 291.001 97.1041H173.822C182.99 115.681 195.108 132.825 209.87 147.789Z" fill="#9863F0"/>
<path d="M205.331 158.896C211.05 158.896 213.914 151.887 209.87 147.789C195.108 132.825 182.99 115.681 173.822 97.1041H94.6686C88.9496 97.1041 86.0863 104.113 90.1301 108.212C104.892 123.176 117.009 140.319 126.178 158.896H205.331Z" fill="#6518E6"/>
<path d="M142.105 1.98999L2.64854 143.354C-3.00931 149.089 0.997822 158.896 8.99921 158.896H126.178C117.009 140.319 104.892 123.176 90.1301 108.212C86.0863 104.113 88.9496 97.1041 94.6686 97.1041H173.822C160.56 70.2355 153.469 40.3686 153.469 9.76046V6.76155C153.469 0.749704 146.299 -2.26105 142.105 1.98999Z" fill="#6BECD4"/>
</svg>

<svg xmlns="http://www.w3.org/2000/svg" fill="none" viewBox="0 0 300 256"><path fill="#9863F0" d="M209.87 147.789c4.044 4.098 1.18 11.107-4.539 11.107h-79.153c13.261 26.868 20.353 56.735 20.353 87.344v2.999c0 6.011 7.17 9.022 11.364 4.771l139.457-141.364c5.657-5.735 1.65-15.542-6.351-15.542H173.822a195 195 0 0 0 36.048 50.685"/><path fill="#6518E6" d="M205.331 158.896c5.719 0 8.583-7.009 4.539-11.107a195 195 0 0 1-36.048-50.685H94.669c-5.72 0-8.583 7.009-4.539 11.108a195.1 195.1 0 0 1 36.048 50.684z"/><path fill="#6BECD4" d="M142.105 1.99 2.649 143.354c-5.658 5.735-1.651 15.542 6.35 15.542h117.179a195.1 195.1 0 0 0-36.048-50.684c-4.044-4.099-1.18-11.108 4.539-11.108h79.153C160.56 70.236 153.469 40.37 153.469 9.76V6.762c0-6.012-7.17-9.023-11.364-4.772"/></svg>
